<?xml version="1.0" encoding="UTF-8"?>
<map version="1.10" tiledversion="1.12.2" orientation="orthogonal" renderorder="right-down" width="25" height="25" tilewidth="32" tileheight="32" infinite="0" nextlayerid="3" nextobjectid="360">
 <tileset firstgid="1" name="beet" tilewidth="32" tileheight="32" tilecount="1" columns="1">
  <image source="Objects/beet.png" width="32" height="32"/>
  <tile id="0" type="Static">
   <properties>
    <property name="ID" type="int" value="3"/>
    <property name="Name" value="beet"/>
    <property name="OFFSET_Y" type="float" value="13"/>
   </properties>
   <objectgroup draworder="index" id="3">
    <object id="2" x="14.0313" y="17" width="5.9375" height="2.0625"/>
   </objectgroup>
  </tile>
 </tileset>
 <tileset firstgid="2" name="bush" class="Static" tilewidth="32" tileheight="32" tilecount="1" columns="1">
  <image source="Objects/bush.png" width="32" height="32"/>
  <tile id="0" type="Static">
   <properties>
    <property name="OFFSET_Y" type="float" value="5"/>
   </properties>
   <objectgroup draworder="index" id="2">
    <object id="1" x="4.9375" y="18.0313" width="22.1563" height="7.9375"/>
   </objectgroup>
  </tile>
 </tileset>
 <tileset firstgid="3" name="carrot" class="Static" tilewidth="32" tileheight="32" tilecount="1" columns="1">
  <image source="Objects/carrot.png" width="32" height="32"/>
  <tile id="0" type="Static">
   <properties>
    <property name="ID" type="int" value="4"/>
    <property name="Name" value="carrot"/>
    <property name="OFFSET_Y" type="float" value="14"/>
   </properties>
   <objectgroup draworder="index" id="2">
    <object id="1" x="14.0326" y="16.0965" width="4" height="1.87772"/>
   </objectgroup>
  </tile>
 </tileset>
 <tileset firstgid="4" name="Char" tilewidth="32" tileheight="32" tilecount="1" columns="1">
  <image source="Objects/Char.png" width="32" height="32"/>
  <tile id="0" type="Player">
   <properties>
    <property name="OFFSET_Y" type="float" value="11"/>
   </properties>
   <objectgroup draworder="index" id="3">
    <object id="2" x="14.0304" y="19.2028" width="3.82609" height="3.83127">
     <ellipse/>
    </object>
    <object id="3" x="0.0320497" y="0.224348" width="32.1779" height="31.7933">
     <ellipse/>
    </object>
   </objectgroup>
  </tile>
 </tileset>
 <tileset firstgid="5" name="pepper" class="Static" tilewidth="32" tileheight="32" tilecount="1" columns="1">
  <image source="Objects/pepper.png" width="32" height="32"/>
  <tile id="0" type="Static">
   <properties>
    <property name="ID" type="int" value="5"/>
    <property name="Name" value="pepper"/>
    <property name="OFFSET_Y" type="float" value="14"/>
   </properties>
   <objectgroup draworder="index" id="2">
    <object id="1" x="15.3913" y="15.2609" width="3.56522" height="2.82609"/>
   </objectgroup>
  </tile>
 </tileset>
 <tileset firstgid="6" name="potato" class="Static" tilewidth="32" tileheight="32" tilecount="1" columns="1">
  <properties>
   <property name="Name" value="potato"/>
  </properties>
  <image source="Objects/potato.png" width="32" height="32"/>
  <tile id="0" type="Static">
   <properties>
    <property name="ID" type="int" value="2"/>
    <property name="Name" value="potato"/>
    <property name="OFFSET_Y" type="float" value="13"/>
   </properties>
   <objectgroup draworder="index" id="2">
    <object id="1" x="13.0544" y="16.8587" width="5.17391" height="2.11957"/>
   </objectgroup>
  </tile>
 </tileset>
 <tileset firstgid="7" name="tree" class="Static" tilewidth="64" tileheight="96" tilecount="1" columns="1">
  <image source="Objects/tree.png" width="64" height="96"/>
  <tile id="0" type="Static">
   <properties>
    <property name="OFFSET_Y" type="float" value="7"/>
   </properties>
   <objectgroup draworder="index" id="2">
    <object id="1" x="28.0909" y="77" width="11" height="11"/>
   </objectgroup>
  </tile>
 </tileset>
 <tileset firstgid="8" name="GrassTileset" tilewidth="32" tileheight="32" tilecount="4" columns="4">
  <image source="Tilesets/GrassTileset.png" width="128" height="32"/>
  <tile id="2" probability="0.1"/>
  <tile id="3" probability="0.1"/>
 </tileset>
 <tileset firstgid="12" name="soupMan" tilewidth="48" tileheight="64" tilecount="4" columns="4">
  <image source="Objects/soupMan.png" width="192" height="64"/>
  <tile id="0" type="Static">
   <properties>
    <property name="ID" type="int" value="6"/>
    <property name="OFFSET_Y" type="float" value="10"/>
   </properties>
   <objectgroup draworder="index" id="2">
    <object id="1" x="1.45455" y="44.2727" width="44.2727" height="14.3636"/>
   </objectgroup>
   <animation>
    <frame tileid="0" duration="150"/>
    <frame tileid="1" duration="150"/>
    <frame tileid="2" duration="150"/>
    <frame tileid="3" duration="150"/>
   </animation>
  </tile>
  <tile id="1" type="Static"/>
  <tile id="2" type="Static"/>
  <tile id="3" type="Static"/>
 </tileset>
 <tileset firstgid="16" name="Samurai" tilewidth="32" tileheight="48" tilecount="10" columns="10">
  <image source="Objects/Samurai.png" width="320" height="48"/>
  <tile id="0" type="Static">
   <properties>
    <property name="ID" type="int" value="7"/>
    <property name="OFFSET_Y" type="float" value="4"/>
   </properties>
   <objectgroup draworder="index" id="2">
    <object id="1" x="11.9565" y="33.8696" width="11.4783" height="10.1739"/>
   </objectgroup>
   <animation>
    <frame tileid="0" duration="100"/>
    <frame tileid="1" duration="100"/>
    <frame tileid="2" duration="100"/>
    <frame tileid="3" duration="100"/>
    <frame tileid="4" duration="100"/>
    <frame tileid="5" duration="100"/>
    <frame tileid="6" duration="100"/>
    <frame tileid="7" duration="100"/>
    <frame tileid="8" duration="100"/>
    <frame tileid="9" duration="100"/>
   </animation>
  </tile>
 </tileset>
 <tileset firstgid="26" name="customer" tilewidth="128" tileheight="32" tilecount="1" columns="1">
  <image source="Objects/customer.png" width="128" height="32"/>
  <tile id="0" type="Static">
   <properties>
    <property name="OFFSET_Y" type="float" value="0"/>
   </properties>
  </tile>
 </tileset>
 <tileset firstgid="27" name="ibo" tilewidth="38" tileheight="55" tilecount="5" columns="5">
  <image source="Objects/ibo.png" width="190" height="55"/>
  <tile id="0" type="Static">
   <properties>
    <property name="ID" type="int" value="7"/>
    <property name="OFFSET_Y" type="float" value="10"/>
   </properties>
   <objectgroup draworder="index" id="2">
    <object id="1" x="13.6708" y="34.8497" width="11.9348" height="12.5858"/>
   </objectgroup>
   <animation>
    <frame tileid="0" duration="300"/>
    <frame tileid="1" duration="300"/>
    <frame tileid="2" duration="300"/>
    <frame tileid="3" duration="300"/>
    <frame tileid="4" duration="100"/>
   </animation>
  </tile>
 </tileset>
 <layer id="1" name="Tile Layer 1" width="25" height="25">
  <data encoding="csv">
8,10,8,10,9,8,8,8,8,8,8,8,9,8,9,9,9,9,9,8,8,9,9,8,8,
9,9,8,9,9,9,9,8,8,9,8,9,9,8,8,8,9,9,9,9,8,9,9,8,9,
8,10,9,8,9,8,9,9,8,9,9,9,8,9,8,9,8,9,8,9,9,9,8,9,9,
8,8,8,9,9,9,8,8,8,8,8,8,8,8,9,8,9,8,8,8,8,8,9,9,8,
9,8,10,8,8,9,9,9,8,8,9,8,9,8,9,9,9,8,9,9,8,10,9,9,8,
9,8,8,8,8,9,9,9,8,10,9,8,8,11,8,9,9,9,9,9,8,9,10,11,9,
9,9,9,9,8,8,9,8,8,9,9,9,9,9,9,8,9,9,8,9,8,9,9,9,9,
9,9,9,9,9,9,11,9,9,8,9,9,9,9,8,9,8,8,8,8,9,8,11,9,8,
9,8,9,9,9,9,9,9,8,9,8,8,9,9,9,8,10,9,9,8,8,9,8,8,8,
9,8,10,8,11,8,10,9,8,8,8,8,8,9,8,8,9,9,9,9,8,9,8,9,9,
8,9,9,9,11,8,8,9,9,8,11,8,9,8,10,8,8,9,8,8,8,9,8,9,9,
9,10,9,8,9,9,9,8,8,9,9,8,9,9,9,9,9,8,8,8,9,9,8,9,9,
9,8,9,8,8,9,8,9,9,9,10,8,9,9,9,8,9,9,8,9,9,9,9,8,9,
9,8,9,8,9,8,8,8,11,9,8,8,9,8,9,8,10,8,8,8,9,9,8,9,9,
11,9,8,8,9,9,9,9,8,8,8,9,9,9,8,9,10,8,8,8,9,10,8,9,8,
8,8,8,9,9,9,8,9,8,9,8,8,8,9,9,9,9,9,8,9,8,9,9,8,8,
8,8,9,8,8,9,8,9,8,9,8,9,9,9,8,8,9,8,9,8,9,8,8,9,9,
8,8,9,8,9,8,9,8,9,9,9,8,8,8,8,8,9,9,8,8,10,9,8,8,8,
11,8,8,8,8,11,8,8,9,9,8,8,9,9,9,9,8,9,9,8,9,8,9,9,8,
10,9,9,9,8,8,9,9,8,10,8,9,9,9,8,9,8,8,9,8,9,9,8,8,9,
9,9,8,9,9,9,8,9,8,10,8,8,8,8,9,9,8,8,8,9,9,9,9,9,9,
8,8,8,8,9,8,8,9,9,11,8,9,8,9,9,9,9,8,9,8,10,8,9,8,8,
10,8,8,9,9,8,10,8,9,9,9,8,9,8,9,9,8,10,9,8,9,8,9,8,8,
9,9,9,8,8,9,8,8,8,9,9,9,9,8,9,9,8,8,8,9,8,10,9,9,9,
8,8,8,8,8,8,8,10,11,9,10,8,9,9,8,9,8,8,8,9,11,9,8,8,8
</data>
 </layer>
 <objectgroup id="2" name="Objects">
  <object id="106" gid="4" x="364" y="362" width="32" height="32"/>
  <object id="137" gid="12" x="672" y="704" width="48" height="64"/>
  <object id="236" gid="26" x="32" y="64" width="128" height="32"/>
  <object id="255" gid="27" x="69.625" y="117.17" width="38" height="55"/>
  <object id="256" gid="7" x="64" y="448" width="64" height="96"/>
  <object id="257" gid="7" x="256" y="256" width="64" height="96"/>
  <object id="258" gid="7" x="544" y="224" width="64" height="96"/>
  <object id="259" gid="7" x="224" y="768" width="64" height="96"/>
  <object id="260" gid="7" x="608" y="512" width="64" height="96"/>
  <object id="261" gid="7" x="416" y="96" width="64" height="96"/>
  <object id="262" gid="7" x="64" y="256" width="64" height="96"/>
  <object id="263" gid="7" x="480" y="704" width="64" height="96"/>
  <object id="264" gid="7" x="192" y="512" width="64" height="96"/>
  <object id="265" gid="7" x="416" y="352" width="64" height="96"/>
  <object id="266" gid="7" x="672" y="160" width="64" height="96"/>
  <object id="267" gid="7" x="64" y="736" width="64" height="96"/>
  <object id="268" gid="7" x="320" y="640" width="64" height="96"/>
  <object id="269" gid="7" x="224" y="384" width="64" height="96"/>
  <object id="270" gid="7" x="448" y="544" width="64" height="96"/>
  <object id="271" gid="7" x="256" y="128" width="64" height="96"/>
  <object id="272" gid="7" x="416" y="224" width="64" height="96"/>
  <object id="273" gid="7" x="576" y="384" width="64" height="96"/>
  <object id="274" gid="7" x="576" y="96" width="64" height="96"/>
  <object id="275" gid="7" x="672" y="352" width="64" height="96"/>
  <object id="276" gid="7" x="608" y="736" width="64" height="96"/>
  <object id="277" gid="7" x="704" y="544" width="64" height="96"/>
  <object id="278" gid="7" x="576" y="640" width="64" height="96"/>
  <object id="279" gid="7" x="384" y="768" width="64" height="96"/>
  <object id="280" gid="7" x="160" y="640" width="64" height="96"/>
  <object id="281" gid="7" x="32" y="576" width="64" height="96"/>
  <object id="282" gid="7" x="96" y="160" width="64" height="96"/>
  <object id="286" gid="2" x="576" y="256" width="32" height="32"/>
  <object id="287" gid="2" x="224" y="320" width="32" height="32"/>
  <object id="288" gid="2" x="416" y="480" width="32" height="32"/>
  <object id="289" gid="2" x="128" y="416" width="32" height="32"/>
  <object id="290" gid="2" x="64" y="384" width="32" height="32"/>
  <object id="292" gid="2" x="73" y="204.5" width="32" height="32"/>
  <object id="293" gid="2" x="192" y="704" width="32" height="32"/>
  <object id="294" gid="2" x="64" y="672" width="32" height="32"/>
  <object id="295" gid="2" x="326.667" y="774" width="32" height="32"/>
  <object id="296" gid="2" x="644" y="778.667" width="32" height="32"/>
  <object id="297" gid="2" x="430" y="606.667" width="32" height="32"/>
  <object id="298" gid="2" x="413.333" y="296" width="32" height="32"/>
  <object id="300" gid="2" x="28" y="204" width="32" height="32"/>
  <object id="301" gid="2" x="195.333" y="250" width="32" height="32"/>
  <object id="306" gid="2" x="235.333" y="166.667" width="32" height="32"/>
  <object id="308" gid="2" x="190.667" y="71.3333" width="32" height="32"/>
  <object id="309" gid="2" x="328.667" y="79.3333" width="32" height="32"/>
  <object id="310" gid="2" x="462.667" y="168.667" width="32" height="32"/>
  <object id="311" gid="2" x="725.333" y="57.3333" width="32" height="32"/>
  <object id="312" gid="2" x="668.667" y="128.667" width="32" height="32"/>
  <object id="313" gid="2" x="543.333" y="50" width="32" height="32"/>
  <object id="314" gid="2" x="719.333" y="408.667" width="32" height="32"/>
  <object id="315" gid="2" x="698" y="259.333" width="32" height="32"/>
  <object id="316" gid="2" x="525.333" y="416.667" width="32" height="32"/>
  <object id="317" gid="2" x="558" y="549.333" width="32" height="32"/>
  <object id="318" gid="2" x="509.333" y="304" width="32" height="32"/>
  <object id="319" gid="2" x="545.333" y="720" width="32" height="32"/>
  <object id="320" gid="2" x="499.333" y="789.333" width="32" height="32"/>
  <object id="321" gid="2" x="686" y="618" width="32" height="32"/>
  <object id="322" gid="2" x="340" y="536.667" width="32" height="32"/>
  <object id="323" gid="2" x="280.667" y="580" width="32" height="32"/>
  <object id="324" gid="2" x="175.333" y="567.333" width="32" height="32"/>
  <object id="325" gid="2" x="72.6667" y="500" width="32" height="32"/>
  <object id="326" gid="2" x="70" y="313.333" width="32" height="32"/>
  <object id="327" gid="2" x="36.6667" y="774.667" width="32" height="32"/>
  <object id="328" gid="2" x="142" y="786" width="32" height="32"/>
  <object id="329" gid="2" x="105.333" y="613.333" width="32" height="32"/>
  <object id="330" gid="2" x="320" y="448" width="32" height="32"/>
  <object id="331" gid="2" x="320" y="320" width="32" height="32"/>
  <object id="332" gid="2" x="352" y="192" width="32" height="32"/>
  <object id="334" gid="7" x="352" y="448" width="64" height="96"/>
  <object id="340" gid="6" x="32" y="640" width="32" height="32"/>
  <object id="341" gid="6" x="224" y="96" width="32" height="32"/>
  <object id="342" gid="6" x="480" y="384" width="32" height="32"/>
  <object id="343" gid="6" x="480" y="736" width="32" height="32"/>
  <object id="344" gid="6" x="608" y="160" width="32" height="32"/>
  <object id="345" gid="1" x="32" y="288" width="32" height="32"/>
  <object id="346" gid="1" x="704" y="768" width="32" height="32"/>
  <object id="347" gid="1" x="224" y="800" width="32" height="32"/>
  <object id="348" gid="1" x="480" y="256" width="32" height="32"/>
  <object id="349" gid="1" x="256" y="224" width="32" height="32"/>
  <object id="350" gid="3" x="160" y="288" width="32" height="32"/>
  <object id="351" gid="3" x="736" y="288" width="32" height="32"/>
  <object id="352" gid="3" x="128" y="160" width="32" height="32"/>
  <object id="353" gid="3" x="256" y="640" width="32" height="32"/>
  <object id="354" gid="3" x="160" y="352" width="32" height="32"/>
  <object id="355" gid="5" x="608" y="480" width="32" height="32"/>
  <object id="356" gid="5" x="288" y="512" width="32" height="32"/>
  <object id="357" gid="5" x="32" y="128" width="32" height="32"/>
  <object id="358" gid="5" x="640" y="224" width="32" height="32"/>
  <object id="359" gid="5" x="352" y="704" width="32" height="32"/>
 </objectgroup>
</map>
